X:0511
T:The White Cockade
P:The White Cockade/The Ranting Highlandman
C:Traditional (Aird 1782)
B:RSCDS 5-11
Z:Anselm Lingnau <anselm@strathspey.org>
R:Reel (8x32)
M:C
L:1/8
K:G
|:GA|"G"B2 B2 B2 AG|B2 B2 B2 "C"ge|"G"d2 B2 "Em"B2 AG|"Am"B2 A2 "D7"A2 GA|
     "G"B2 Bd "D7"cBAG|"G"B2 "D"d2 "Em"g3 a|"G"bagf "C"agfe|"G"d2 B2 B2::
  Bc|"G"d2 B2 g2 B2|d2 d2 "D"d3 e|"G"d2 B2 "Em"g2 fg|"Am"a2 A2 "D7"A2 GA|
     "G"B2 Bd "D7"cBAG|"G"B2 "D"d2 "Em"g3 a|"G"bagf "C"agfe|"G"d2 B2 B2:|
